X:1
T:Piano Étude after Paganini's 19th Caprice
T:Piano Étude after Paganini's 19th Caprice
T:Op. 3, No. 5
T:Robert Schumann
C:Robert Schumann
%%score { ( 1 3 ) | ( 2 4 ) }
L:1/8
Q:1/4=70
M:4/4
K:Eb
V:1 treble nm="Piano" snm="Pno."
V:3 treble 
V:2 bass 
V:4 bass 
V:1
"^Lento"!p! [bb']4 [gg']2 [ee']2 |{/[bb']} [Bb]4 z4 |!pp! [Bb]4 [Gg]2 [Ee]2 | %3
{/[Bb]} [B,B]4 !fermata!z4 |:[Q:1/4=160]"^Allegro assai" !fermata!z!p! BBB{/c} B=AB!f! z | %5
 z!p! bb!p!b{/c'} b=ab!f! z | z!p! BBB{/c} B=AB!f! z | z!p! bb!p!b{/c'} b=ab!f! z | %8
 z!p! eee{/f} ede!f! z | z!p! e'e'e'{/f'} e'd'e' z | z!p! eee{/f} ede!f! z | %11
 z!p! e'e'e'{/f'} e'd'e' z | %12
{/!fermata!d} !fermata!d'2{/!fermata!d'} !fermata!c'>!fermata!b{/!fermata!g!fermata!_a!fermata!b!fermata!c'} !fermata!b2 !fermata!z2 :| %13
 !fermata!z bbb{/c'} b=ab z | z!p! BBB{/c} B=AB!f! z | z!p! bbb{/c'} b=ab!mf! z | %16
 z!p!!f![I:staff +1] B,B,B,{/C} B,=A,B,[I:staff -1] z | z!p! eee{/f} ede!f! z | %18
 z!p! e{/f}ee' z!8va(! e'{/f'}e'e''!8va)! | z e{/f}ee' z!8va(! d'{/e'}d'd'' | %20
 z !arpeggio![e'b'e''] z !arpeggio![c'a'c''] z !arpeggio![be'b'] z !arpeggio![ad']!8va)! | %21
 z bbb{/c'} b=ab z | z"_dim." e'e'e'{/f'} e'd'e' z | z!8va(! g'g'g'{/a'} g'f'g' z | %24
 z b'b'b'{/c''} b'=a'b'!8va)! z | z!<(! ggg{/a} gfed!<)! |: %26
[Q:1/4=160]"^Minore"!p!!ff! (C/G,/.E/.D/) (C/D/E/C/) (D/G,/.F/.E/) (D/E/F/D/) | %27
 (E/D/C/).G/ (E/D/C/).c/ (E/D/C/).e/ (E/D/C/).g/ | %28
 .=B,/.G,/.D/.C/ (B,/F/E/D/) (.E/.D/).C/.B,/ .C/.D/.E/.^F/ | %29
 .G/(G,/=A,/=B,/ C/"_cresc."D/=E/^F/ G/=A/=B/c/ d/=e/!^!^f/g/) | %30
 (C/G,/.E/.D/) (C/D/E/C/) (D/G,/.F/.E/) (D/E/F/D/) | %31
 (E/D/C/).G/ (E/D/C/).c/ (E/D/C/).e/ (E/D/C/).g/ | %32
 (G,/A,/G,/).C/ (G,/A,/G,/).E/ (G,/A,/G,/).G/ (G/F/E/D/ | .C)(D/E/ F/G/=A/=B/ c2) z2 :: %34
 (_B,/C/B,/).D/ (B,/C/B,/).F/ (B,/C/B,/).G/ (B,/C/B,/)(=A/ | %35
 B/)(B,/C/D/ E/F/"_cresc."G/=A/ B/c/d/e/ f/g/!^!=a/b/) | %36
 (_B,/C/B,/).D/ (B,/C/B,/).F/ (B,/C/B,/).G/ (B,/C/B,/).=A/ | %37
 (B,/B/).=A/.G/ .F/.E/.D/.C/ (B,/_A/).G/.F/ (.E/.D/.C/.=B,/) | %38
 (C/G,/.E/.D/) (C/D/E/C/) (D/G,/.F/.E/) (D/E/F/D/) | %39
 (E/D/C/).G/ (E/D/C/).c/ (E/D/C/).e/ (E/D/C/).g/ | %40
 (G,/A,/G,/).C/ (G,/A,/G,/).E/ (G,/A,/G,/).G/ (G/F/E/D/ |1 .C)(D/E/ F/G/=A/=B/ c2) z2 :|2 %42
!>(! Cc'c'c'{/d'} c'_c'!>)!!pp!b!f! z || z!p! bb!p!b{/c'} b=ab!f! z | z!p! BBB{/c} B=AB!f! z | %45
 z!p! bb!p!b{/c'} b=ab!f! z | z!p! eee{/f} ede!f! z | z!p! e'e'e'{/f'} e'd'e' z | %48
 z!p! eee{/f} ede!f! z | z!p! e'e'e'{/f'} e'd'e' z | %50
{/!fermata!d} !fermata!d'2{/!fermata!d'} !fermata!c'>!fermata!b{/!fermata!=a!fermata!b!fermata!c'} !^!!fermata!b2 !fermata!z2 | %51
 !fermata!z bbb{/c'} b=ab z | z!p! BBB{/c} B=AB!f! z | z!p! bbb{/c'} b=ab!mf! z | %54
 z!p!!f![I:staff +1] B,B,B,{/C} B,=A,B,[I:staff -1] z | z!p! eee{/f} ede!f! z | %56
 z!p! e{/f}ee' z!8va(! e'{/f'}e'e''!8va)! | z e{/f}ee' z!8va(! d'{/e'}d'd'' | %58
 z !arpeggio![e'b'e''] z !arpeggio![c'a'c''] z !arpeggio![be'b'] z !arpeggio![ad']!8va)! | %59
 z bbb{/c'} b=ab z | z"_dim." e'e'e'{/f'} e'd'e' z | z!8va(! g'g'g'{/a'} g'f'g' z | %62
 z b'b'b'{/c''} b'=a'b' z |!<(! z e''e''e''{/f''} e''d''{/f''}e''d'' | %64
 e''!8va)! z z2 z!<)!!ff! .[FBd].[GBe].[FBd] | [GBe]4 !fermata!z4 |] %66
V:2
!ped! z8 | z8 | z8 | z8 |: !fermata!z!ped-up! z z2 z2 z[I:staff -1] ([B,G] | %5
[G,E])[I:staff +1] z z!pp! (E,E,,) z z[I:staff -1] ([B,G] | %6
 [_A,F])[I:staff +1] z z!pp! (E,E,,) z z[I:staff -1] [B,F] | %7
[_A,D][I:staff +1] z z!pp! (E,E,,) z z[I:staff -1] [B,F] | %8
[G,E][I:staff +1] z z!pp! (E,E,,) z z[I:staff -1] [B,G] | %9
[CA][I:staff +1] z z (E,E,,) z z!f![I:staff -1] [CA] | %10
 [B,G][I:staff +1] z z (E,E,,) z z[I:staff -1] [B,G] | %11
[=A,_G][I:staff +1] z z!ped! (CC,) z z!ped-up![I:staff -1] [A,G] | %12
!ped![I:staff +1]{/!fermata!B,,!fermata!D,!fermata!F,!fermata!D} !fermata!F2 z2!ped-up! !fermata!z4 :| %13
 !fermata!z z z2 z2 z!f![I:staff -1] ([GB] | %14
 [F_A])[I:staff +1] z z (B,B,,) z z[I:staff -1] ([F_A] | %15
[EG])[I:staff +1] z z (B,B,,) z z[I:staff -1] [B,G] | %16
[_A,F][I:staff +1] z z (B,,B,,,) z z[I:staff -1] ([_A,F] |[G,E])[I:staff +1] z z (E,E,,) z z x | %18
 z2 z[K:treble] [CA][B,G] z z [B,G] |[=A,_G] z z [A,G][_A,F] z z [A,F] | %20
"^leggiero" !arpeggio![G,E] z !arpeggio![A,F] z !arpeggio![B,G] z !arpeggio![B,F] z | %21
 [G,E] z z (EE,) z z [B,F] | [G,E] z z[K:bass] (E,E,,) z z[K:treble] [B,F] | %23
 [G,E] z z (EE,) z z [B,F] |[G,E] z z[K:bass] (E,E,,) z z[I:staff -1] [B,F] | %25
[G,E][I:staff +1] z z2 z4 |: (C,,C,) z .C,, (=B,,,=B,,) z .B,,, | C,,.E,C,,.C, C,,.G,,C,,.E,, | %28
 (G,,,G,,) z .=B,,, (C,,C,) z .A,,, | (G,,,-G,,-) [G,,,G,,]6 | (C,,C,) z .C,, (=B,,,=B,,) z .B,,, | %31
 C,,.E,C,,.C, C,,.G,,C,,.E,, | (G,,,G,,) z .E,, (G,,,G,,) z .=B,,, | (C,,-C,-) [C,,C,]2 z4 :: %34
 (D,B,,) z ._A, (G,B,,) z ._G, | (F,B,,) z2 (!^!FB,) z2 | (D,,B,,) z ._A,, (G,,B,,) z ._G,, | %37
 (F,,B,,) z =A,, (B,,B,,,) z (G,, | C,,C,) z .C,, (=B,,,=B,,) z .B,,, | %39
 C,,.E,C,,.C, C,,.G,,C,,.E,, | (G,,,G,,) z .E,, (G,,,G,,) z .=B,,, |1 (C,,-C,-) [C,,C,]2 z4 :|2 %42
 C,, z"^smorzando"[I:staff -1] !arpeggio![=A,E_G]2 !arpeggio![B,EF]2 D ([B,=G] || %43
[G,E])[I:staff +1] z z!pp! (E,E,,) z z[I:staff -1] ([B,G] | %44
[_A,F])[I:staff +1] z z!pp! (E,E,,) z z[I:staff -1] [B,F] | %45
[_A,D][I:staff +1] z z!pp! (E,E,,) z z[I:staff -1] [B,F] | %46
 [G,E][I:staff +1] z z!pp! (E,E,,) z z[I:staff -1] [B,G] | %47
[CA][I:staff +1] z z (E,E,,) z z!f![I:staff -1] [CA] | %48
[B,G][I:staff +1] z z (E,E,,) z z[I:staff -1] [B,G] | %49
[=A,_G]!ped![I:staff +1] z z (C!ped-up!C,) z z[I:staff -1] [A,G] | %50
!ped![I:staff +1]{/!fermata!B,,!fermata!D,!fermata!F,!fermata!D} !fermata!F2 z2!ped-up! !fermata!z4 | %51
 !fermata!z z z2 z2 z!f![I:staff -1] ([GB] |[F_A])[I:staff +1] z z (B,B,,) z z[I:staff -1] ([F_A] | %53
[EG])[I:staff +1] z z (B,B,,) z z[I:staff -1] [B,G] | %54
 [_A,F][I:staff +1] z z (B,,B,,,) z z[I:staff -1] ([_A,F] |[G,E])[I:staff +1] z z (E,E,,) z z x | %56
 z2 z[K:treble] [CA][B,G] z z [B,G] | [=A,_G] z z [A,G][_A,F] z z [A,F] | %58
"^leggiero" !arpeggio![G,E] z !arpeggio![A,F] z !arpeggio![B,G] z !arpeggio![B,F] z | %59
 [G,E] z z (EE,) z z ([B,F] | [G,E]) z z (EE,) z z[K:treble] ([B,F] | %61
[G,E]) z z[K:bass] (B,B,,) z z ([B,F] |[G,E])"^ritenente" z z (G,G,,) z z ([B,F] | %63
 [G,E]) z z (E,E,,) z z[K:treble] ([B,F] | %64
 [EG][B,F][EG][B,F] [EG])[K:bass].[B,,B,].[E,,E,].[B,,B,] | [E,,E,]4 !fermata!z4 |] %66
V:3
 x8 | x8 | x8 | x8 |: x8 | x8 | x8 | x8 | x8 | x8 | x8 | x8 | x8 :| x8 | x8 | x8 | x8 | %17
 x4 x2 x [B,G] | [CA] z !>!E2 z2!8va(! !>!e2!8va)! | z2 !>!C2 x2!8va(! !>!B2 | x8!8va)! | x8 | x8 | %23
 x!8va(! x7 | x7!8va)! x | x8 |: x8 | x8 | x8 | x8 | x8 | x8 | x8 | x8 :: x8 | x8 | x8 | x8 | x8 | %39
 x8 | x8 |1 x8 :|2 x8 || x8 | x8 | x8 | x8 | x8 | x8 | x8 | x8 | x8 | x8 | x8 | x8 | %55
 x4 x2 x [B,G] | [CA] z !>!E2 z2!8va(! !>!e2!8va)! | z2 !>!C2 x2!8va(! !>!B2 | x8!8va)! | x8 | x8 | %61
 x!8va(! x7 | x8 | x8 | x!8va)! x7 | x8 |] %66
V:4
 x8 | x8 | x8 | x8 |: x8 | x8 | x8 | x8 | x8 | x8 | x8 | x8 | x8 :| x8 | x8 | x8 | x8 | x8 | %18
 x3[K:treble] x5 | x4 _C2 x2 | x8 | x8 | x3[K:bass] x4[K:treble] x | x8 | x3[K:bass] x5 | x8 |: %26
 x8 | x8 | x8 | x8 | x8 | x8 | x8 | x8 :: x8 | x8 | x8 | x8 | x8 | x8 | x8 |1 x8 :|2 x8 || x8 | %44
 x8 | x8 | x8 | x8 | x8 | x8 | x8 | x8 | x8 | x8 | x8 | x8 | x3[K:treble] x5 | x4 _C2 x2 | x8 | %59
 x8 | x7[K:treble] x | x3[K:bass] x5 | x8 | x7[K:treble] x | x5[K:bass] x3 | x8 |] %66

